src/16/image-16.svg

<svg baseProfile="tiny" xmlns="http://www.w3.org/2000/svg" viewBox="0 0 16 16"><path d="M3.354 13.804l-.846-.535L5.62 8.352a.504.504 0 0 1 .808-.053l1.746 2.095L10.1 6.156a.493.493 0 0 1 .465-.293.5.5 0 0 1 .453.311l2.932 7.177-.926.379-2.494-6.104-1.775 3.906a.498.498 0 0 1-.839.113L6.1 9.467l-2.746 4.337z"/><path d="M15.5 16H.5a.5.5 0 0 1-.5-.5V.5A.5.5 0 0 1 .5 0h15a.5.5 0 0 1 .5.5v15a.5.5 0 0 1-.5.5zM1 15h14V1H1v14z"/><path d="M0 13h16v1H0zM4.691 6.413a1.855 1.855 0 0 1 0-3.708 1.855 1.855 0 0 1 0 3.708zm0-2.707a.855.855 0 0 0 0 1.708.855.855 0 0 0 0-1.708z"/></svg>

<?xml version="1.0" encoding="iso-8859-1"?>
<!-- Generator: Adobe Illustrator 19.1.0, SVG Export Plug-In . SVG Version: 6.00 Build 0)  -->
<!DOCTYPE svg PUBLIC "-//W3C//DTD SVG 1.1 Tiny//EN" "http://www.w3.org/Graphics/SVG/1.1/DTD/svg11-tiny.dtd">
<svg version="1.1" baseProfile="tiny" xmlns="http://www.w3.org/2000/svg" xmlns:xlink="http://www.w3.org/1999/xlink" x="0px"
	 y="0px" viewBox="0 0 16 16" xml:space="preserve">
<g id="Layer_1">
	<g>
		<path d="M3.354,13.804l-0.846-0.535l3.112-4.917c0.086-0.135,0.23-0.221,0.391-0.231C6.17,8.111,6.326,8.177,6.428,8.299
			l1.746,2.095L10.1,6.156c0.082-0.182,0.277-0.308,0.465-0.293c0.199,0.004,0.378,0.126,0.453,0.311l2.932,7.177l-0.926,0.379
			L10.53,7.626l-1.775,3.906c-0.071,0.156-0.218,0.266-0.389,0.288c-0.162,0.021-0.34-0.043-0.45-0.175L6.1,9.467L3.354,13.804z"/>
		<path d="M15.5,16h-15C0.224,16,0,15.776,0,15.5v-15C0,0.224,0.224,0,0.5,0h15C15.776,0,16,0.224,16,0.5v15
			C16,15.776,15.776,16,15.5,16z M1,15h14V1H1V15z"/>
		<rect y="13" width="16" height="1"/>
		<path d="M4.691,6.413c-1.022,0-1.854-0.831-1.854-1.854s0.831-1.854,1.854-1.854c1.021,0,1.853,0.831,1.853,1.854
			S5.713,6.413,4.691,6.413z M4.691,3.706c-0.471,0-0.854,0.383-0.854,0.854s0.383,0.854,0.854,0.854
			c0.47,0,0.853-0.383,0.853-0.854S5.161,3.706,4.691,3.706z"/>
	</g>
</g>
<g id="Layer_2">
</g>
<g id="Layer_3">
</g>
</svg>
